X: 14003
T: ANTHONY'S HORNPIPE
C: Bob McQuillen 30 June'08
B: Bob's Note Book 14 #3
%R: hornpipe, reel
%D:2008
Z: 2020 John Chambers <jc:trillian.mit.edu>
M: C
L: 1/8
K: D
AB \
| d2ed cdef | gfed c2A2 | B2GB Adfa | gfed cABc |
| d2ed cdef | gBed cABc | d2fd efga | f2d2 d2  :|
|: fg \
| a2ag fded | Bdga fefg | a2ag fdAG | FAde fedc |
| B2Bd cAce | dBdf geag | fdBd cAce | d2f2 d2  :|
%%begintext align
%% Anthony Joseph Swingle was a nifty young
%% dancer who came to the "Monday Night Dance
%% in Nelson". It was so much fun watching him
%% on the floor that I wrote him this tune. I
%% hope he likes it.
%%endtext

%%sep 1 1 500

%%sep 1 1 500

